Newaita-dark/apps/48/credentials-preferences.svg

<svg height="48pt" viewBox="0 0 48 48" width="48pt" xmlns="http://www.w3.org/2000/svg" xmlns:xlink="http://www.w3.org/1999/xlink"><linearGradient id="a"><stop offset="0" stop-opacity=".313725"/><stop offset=".222222" stop-opacity=".27451"/><stop offset="1" stop-opacity="0"/></linearGradient><radialGradient id="b" cx="450.908936" cy="189.579361" gradientTransform="matrix(.00000026 -.117199 -.210958 -.00000015 75.219127 91.423869)" gradientUnits="userSpaceOnUse" r="21.166656" xlink:href="#a"/><radialGradient id="c" cx="450.908936" cy="189.579361" gradientTransform="matrix(-.00000026 .117199 .210958 .00000015 -29.574146 -15.260349)" gradientUnits="userSpaceOnUse" r="21.166656" xlink:href="#a"/><radialGradient id="d" cx="450.908936" cy="189.579361" gradientTransform="matrix(-.00000026 -.117199 .210958 -.00000015 -29.574146 91.423869)" gradientUnits="userSpaceOnUse" r="21.166656" xlink:href="#a"/><radialGradient id="e" cx="450.908936" cy="189.579361" gradientTransform="matrix(.00000026 .117199 -.210958 .00000015 75.219124 -15.260349)" gradientUnits="userSpaceOnUse" r="21.166656" xlink:href="#a"/><linearGradient id="f" gradientTransform="matrix(.0200401 0 0 .093759 15.22509 16.18905)" gradientUnits="userSpaceOnUse" x1="255.323059" x2="255.323044" y1="233.5" y2="254.666656"><stop offset="0" stop-opacity=".27451"/><stop offset="1" stop-opacity="0"/></linearGradient><linearGradient id="g" gradientUnits="userSpaceOnUse" x1="23.814786" x2="23.814786" y1="38.08177100005" y2="8.3132869999"><stop offset="0" stop-color="#b0bec5"/><stop offset="1" stop-color="#cfd8dc"/></linearGradient><path d="m35.722656 38.082031h3.96875v-1.984375h-3.96875zm0 0" fill="url(#b)"/><path d="m9.921875 38.082031h-3.96875v1.984375h3.96875zm0 0" fill="url(#c)"/><path d="m9.921875 38.082031h-3.96875v-1.984375h3.96875zm0 0" fill="url(#d)"/><path d="m35.722656 38.082031h3.96875v1.984375h-3.96875zm0 0" fill="url(#e)"/><path d="m9.921875 37.585938h25.800781v2.480468h-25.800781zm0 0" fill="url(#f)"/><path d="m22.800781 8.296875c-7.695312 0-13.890625 6.542969-13.890625 14.671875v.425781c0 .265625.007813.53125.019532.792969-3.34375.214844-5.972657 3.066406-5.972657 6.578125v.707031c0 3.652344 2.84375 6.59375 6.378907 6.59375h5.546874v.011719h20.839844c5.496094 0 9.921875-4.425781 9.921875-9.921875 0-5.417969-4.296875-9.792969-9.683593-9.921875-1.855469-5.789063-7.03125-9.9375-13.160157-9.9375zm0 0" fill="url(#g)"/><path d="m9.886719 24.191406c-3.871094 0-6.984375 3.097656-6.984375 6.945313 0 .101562.003906.207031.007812.308593.160156-3.703124 3.210938-6.636718 6.976563-6.636718 3.761719 0 6.8125 2.933594 6.976562 6.636718.003907-.101562.003907-.207031.003907-.308593 0-3.847657-3.113282-6.945313-6.980469-6.945313zm0 0" fill="#fafafa" fill-opacity=".588235"/><path d="m22.800781 8.296875c-7.695312 0-13.890625 6.542969-13.890625 14.671875v.425781.160157c.089844-8.046876 6.25-14.496094 13.890625-14.496094 6.128907 0 11.304688 4.144531 13.160157 9.9375 5.257812.125 9.480468 4.300781 9.675781 9.539062.003906-.125.007812-.253906.007812-.378906 0-5.417969-4.296875-9.792969-9.683593-9.921875-1.855469-5.789063-7.03125-9.9375-13.160157-9.9375zm-13.890625 15.890625c-3.332031.226562-5.953125 3.074219-5.953125 6.578125v.707031.027344c.015625-3.5 2.636719-6.339844 5.972657-6.550781-.011719-.253907-.019532-.507813-.019532-.761719zm0 0" fill="#fff" fill-opacity=".392157"/><path d="m8.910156 22.792969v.175781.425781.035157c.007813 0 .015625-.003907.019532-.003907-.007813-.207031-.015626-.417969-.019532-.632812zm36.726563 4.980469c-.195313 5.320312-4.542969 9.546874-9.914063 9.546874h-20.839844v-.015624h-5.546874c-3.527344 0-6.363282-2.925782-6.378907-6.566407v.027344.707031c0 3.652344 2.84375 6.59375 6.378907 6.59375h5.546874v.011719h20.839844c5.496094 0 9.921875-4.425781 9.921875-9.921875 0-.128906 0-.253906-.007812-.382812zm0 0" fill-opacity=".235294"/><path d="m35.96875 18.234375c-5.359375 0-9.671875 4.425781-9.671875 9.925781 0 .125 0 .246094.003906.371094.191407-5.324219 4.429688-9.550781 9.667969-9.550781s9.480469 4.226562 9.667969 9.550781c.007812-.125.007812-.246094.007812-.371094 0-5.5-4.316406-9.925781-9.675781-9.925781zm0 0" fill="#fafafa" fill-opacity=".588235"/><path d="m22.800781 8.15625c-7.773437 0-14.03125 6.613281-14.03125 14.8125v.425781c0 .222657.007813.445313.015625.667969-3.351562.285156-5.96875 3.167969-5.96875 6.703125v.707031c0 3.726563 2.90625 6.734375 6.519532 6.734375h5.488281c.019531.007813.039062.011719.058593.011719h20.839844c5.570313 0 10.0625-4.488281 10.0625-10.0625 0-5.457031-4.308594-9.875-9.722656-10.054688-1.898438-5.796874-7.101562-9.945312-13.261719-9.945312zm0 .28125c6.066407 0 11.1875 4.101562 13.027344 9.839844.015625.058594.070313.097656.128906.097656 5.3125.125 9.546875 4.4375 9.546875 9.78125 0 5.421875-4.359375 9.78125-9.78125 9.78125h-20.777344c-.019531-.007812-.039062-.011719-.0625-.011719h-5.546874c-3.457032 0-6.238282-2.875-6.238282-6.453125v-.707031c0-3.441406 2.574219-6.226563 5.84375-6.4375.074219-.003906.132813-.070313.128906-.148437-.011718-.261719-.019531-.523438-.019531-.785157v-.425781c0-8.054688 6.136719-14.53125 13.75-14.53125zm0 0" fill="#212121"/></svg>

<?xml version="1.0" encoding="UTF-8"?>
<svg xmlns="http://www.w3.org/2000/svg" xmlns:xlink="http://www.w3.org/1999/xlink" width="48pt" height="48pt" viewBox="0 0 48 48" version="1.1">
<defs>
<radialGradient id="radial0" gradientUnits="userSpaceOnUse" cx="450.908936" cy="189.579361" fx="450.908936" fy="189.579361" r="21.166656" gradientTransform="matrix(0.000000261256,-0.117199,-0.210958,-0.000000152308,75.219127,91.423869)">
<stop offset="0" style="stop-color:rgb(0%,0%,0%);stop-opacity:0.313725;"/>
<stop offset="0.222222" style="stop-color:rgb(0%,0%,0%);stop-opacity:0.27451;"/>
<stop offset="1" style="stop-color:rgb(0%,0%,0%);stop-opacity:0;"/>
</radialGradient>
<radialGradient id="radial1" gradientUnits="userSpaceOnUse" cx="450.908936" cy="189.579361" fx="450.908936" fy="189.579361" r="21.166656" gradientTransform="matrix(-0.000000261256,0.117199,0.210958,0.000000152308,-29.574146,-15.260349)">
<stop offset="0" style="stop-color:rgb(0%,0%,0%);stop-opacity:0.313725;"/>
<stop offset="0.222222" style="stop-color:rgb(0%,0%,0%);stop-opacity:0.27451;"/>
<stop offset="1" style="stop-color:rgb(0%,0%,0%);stop-opacity:0;"/>
</radialGradient>
<radialGradient id="radial2" gradientUnits="userSpaceOnUse" cx="450.908936" cy="189.579361" fx="450.908936" fy="189.579361" r="21.166656" gradientTransform="matrix(-0.000000261256,-0.117199,0.210958,-0.000000152308,-29.574146,91.423869)">
<stop offset="0" style="stop-color:rgb(0%,0%,0%);stop-opacity:0.313725;"/>
<stop offset="0.222222" style="stop-color:rgb(0%,0%,0%);stop-opacity:0.27451;"/>
<stop offset="1" style="stop-color:rgb(0%,0%,0%);stop-opacity:0;"/>
</radialGradient>
<radialGradient id="radial3" gradientUnits="userSpaceOnUse" cx="450.908936" cy="189.579361" fx="450.908936" fy="189.579361" r="21.166656" gradientTransform="matrix(0.000000261256,0.117199,-0.210958,0.000000152308,75.219124,-15.260349)">
<stop offset="0" style="stop-color:rgb(0%,0%,0%);stop-opacity:0.313725;"/>
<stop offset="0.222222" style="stop-color:rgb(0%,0%,0%);stop-opacity:0.27451;"/>
<stop offset="1" style="stop-color:rgb(0%,0%,0%);stop-opacity:0;"/>
</radialGradient>
<linearGradient id="linear0" gradientUnits="userSpaceOnUse" x1="255.323059" y1="233.5" x2="255.323044" y2="254.666656" gradientTransform="matrix(0.0200401,0,0,0.093759,15.22509,16.18905)">
<stop offset="0" style="stop-color:rgb(0%,0%,0%);stop-opacity:0.27451;"/>
<stop offset="1" style="stop-color:rgb(0%,0%,0%);stop-opacity:0;"/>
</linearGradient>
<linearGradient id="linear1" gradientUnits="userSpaceOnUse" x1="254" y1="191.166672" x2="254" y2="-126.333344" gradientTransform="matrix(0.093759,0,0,0.093759,0,20.158175)">
<stop offset="0" style="stop-color:rgb(69.019608%,74.509804%,77.254902%);stop-opacity:1;"/>
<stop offset="1" style="stop-color:rgb(81.176471%,84.705882%,86.27451%);stop-opacity:1;"/>
</linearGradient>
</defs>
<g id="surface1">
<path style=" stroke:none;fill-rule:nonzero;fill:url(#radial0);" d="M 35.722656 38.082031 L 39.691406 38.082031 L 39.691406 36.097656 L 35.722656 36.097656 Z M 35.722656 38.082031 "/>
<path style=" stroke:none;fill-rule:nonzero;fill:url(#radial1);" d="M 9.921875 38.082031 L 5.953125 38.082031 L 5.953125 40.066406 L 9.921875 40.066406 Z M 9.921875 38.082031 "/>
<path style=" stroke:none;fill-rule:nonzero;fill:url(#radial2);" d="M 9.921875 38.082031 L 5.953125 38.082031 L 5.953125 36.097656 L 9.921875 36.097656 Z M 9.921875 38.082031 "/>
<path style=" stroke:none;fill-rule:nonzero;fill:url(#radial3);" d="M 35.722656 38.082031 L 39.691406 38.082031 L 39.691406 40.066406 L 35.722656 40.066406 Z M 35.722656 38.082031 "/>
<path style=" stroke:none;fill-rule:nonzero;fill:url(#linear0);" d="M 9.921875 37.585938 L 35.722656 37.585938 L 35.722656 40.066406 L 9.921875 40.066406 Z M 9.921875 37.585938 "/>
<path style=" stroke:none;fill-rule:nonzero;fill:url(#linear1);" d="M 22.800781 8.296875 C 15.105469 8.296875 8.910156 14.839844 8.910156 22.96875 L 8.910156 23.394531 C 8.910156 23.660156 8.917969 23.925781 8.929688 24.1875 C 5.585938 24.402344 2.957031 27.253906 2.957031 30.765625 L 2.957031 31.472656 C 2.957031 35.125 5.800781 38.066406 9.335938 38.066406 L 14.882812 38.066406 L 14.882812 38.078125 L 35.722656 38.078125 C 41.21875 38.078125 45.644531 33.652344 45.644531 28.15625 C 45.644531 22.738281 41.347656 18.363281 35.960938 18.234375 C 34.105469 12.445312 28.929688 8.296875 22.800781 8.296875 Z M 22.800781 8.296875 "/>
<path style=" stroke:none;fill-rule:nonzero;fill:rgb(98.039216%,98.039216%,98.039216%);fill-opacity:0.588235;" d="M 9.886719 24.191406 C 6.015625 24.191406 2.902344 27.289062 2.902344 31.136719 C 2.902344 31.238281 2.90625 31.34375 2.910156 31.445312 C 3.070312 27.742188 6.121094 24.808594 9.886719 24.808594 C 13.648438 24.808594 16.699219 27.742188 16.863281 31.445312 C 16.867188 31.34375 16.867188 31.238281 16.867188 31.136719 C 16.867188 27.289062 13.753906 24.191406 9.886719 24.191406 Z M 9.886719 24.191406 "/>
<path style=" stroke:none;fill-rule:nonzero;fill:rgb(100%,100%,100%);fill-opacity:0.392157;" d="M 22.800781 8.296875 C 15.105469 8.296875 8.910156 14.839844 8.910156 22.96875 L 8.910156 23.394531 C 8.910156 23.445312 8.910156 23.5 8.910156 23.554688 C 9 15.507812 15.160156 9.058594 22.800781 9.058594 C 28.929688 9.058594 34.105469 13.203125 35.960938 18.996094 C 41.21875 19.121094 45.441406 23.296875 45.636719 28.535156 C 45.640625 28.410156 45.644531 28.28125 45.644531 28.15625 C 45.644531 22.738281 41.347656 18.363281 35.960938 18.234375 C 34.105469 12.445312 28.929688 8.296875 22.800781 8.296875 Z M 8.910156 24.1875 C 5.578125 24.414062 2.957031 27.261719 2.957031 30.765625 L 2.957031 31.472656 C 2.957031 31.480469 2.957031 31.492188 2.957031 31.5 C 2.972656 28 5.59375 25.160156 8.929688 24.949219 C 8.917969 24.695312 8.910156 24.441406 8.910156 24.1875 Z M 8.910156 24.1875 "/>
<path style=" stroke:none;fill-rule:nonzero;fill:rgb(0%,0%,0%);fill-opacity:0.235294;" d="M 8.910156 22.792969 C 8.910156 22.851562 8.910156 22.910156 8.910156 22.96875 L 8.910156 23.394531 C 8.910156 23.40625 8.910156 23.417969 8.910156 23.429688 C 8.917969 23.429688 8.925781 23.425781 8.929688 23.425781 C 8.921875 23.21875 8.914062 23.007812 8.910156 22.792969 Z M 45.636719 27.773438 C 45.441406 33.09375 41.09375 37.320312 35.722656 37.320312 L 14.882812 37.320312 L 14.882812 37.304688 L 9.335938 37.304688 C 5.808594 37.304688 2.972656 34.378906 2.957031 30.738281 C 2.957031 30.746094 2.957031 30.757812 2.957031 30.765625 L 2.957031 31.472656 C 2.957031 35.125 5.800781 38.066406 9.335938 38.066406 L 14.882812 38.066406 L 14.882812 38.078125 L 35.722656 38.078125 C 41.21875 38.078125 45.644531 33.652344 45.644531 28.15625 C 45.644531 28.027344 45.644531 27.902344 45.636719 27.773438 Z M 45.636719 27.773438 "/>
<path style=" stroke:none;fill-rule:nonzero;fill:rgb(98.039216%,98.039216%,98.039216%);fill-opacity:0.588235;" d="M 35.96875 18.234375 C 30.609375 18.234375 26.296875 22.660156 26.296875 28.160156 C 26.296875 28.285156 26.296875 28.40625 26.300781 28.53125 C 26.492188 23.207031 30.730469 18.980469 35.96875 18.980469 C 41.207031 18.980469 45.449219 23.207031 45.636719 28.53125 C 45.644531 28.40625 45.644531 28.285156 45.644531 28.160156 C 45.644531 22.660156 41.328125 18.234375 35.96875 18.234375 Z M 35.96875 18.234375 "/>
<path style=" stroke:none;fill-rule:nonzero;fill:rgb(12.941177%,12.941177%,12.941177%);fill-opacity:1;" d="M 22.800781 8.15625 C 15.027344 8.15625 8.769531 14.769531 8.769531 22.96875 L 8.769531 23.394531 C 8.769531 23.617188 8.777344 23.839844 8.785156 24.0625 C 5.433594 24.347656 2.816406 27.230469 2.816406 30.765625 L 2.816406 31.472656 C 2.816406 35.199219 5.722656 38.207031 9.335938 38.207031 L 14.824219 38.207031 C 14.84375 38.214844 14.863281 38.21875 14.882812 38.21875 L 35.722656 38.21875 C 41.292969 38.21875 45.785156 33.730469 45.785156 28.15625 C 45.785156 22.699219 41.476562 18.28125 36.0625 18.101562 C 34.164062 12.304688 28.960938 8.15625 22.800781 8.15625 Z M 22.800781 8.4375 C 28.867188 8.4375 33.988281 12.539062 35.828125 18.277344 C 35.84375 18.335938 35.898438 18.375 35.957031 18.375 C 41.269531 18.5 45.503906 22.8125 45.503906 28.15625 C 45.503906 33.578125 41.144531 37.9375 35.722656 37.9375 L 14.945312 37.9375 C 14.925781 37.929688 14.90625 37.925781 14.882812 37.925781 L 9.335938 37.925781 C 5.878906 37.925781 3.097656 35.050781 3.097656 31.472656 L 3.097656 30.765625 C 3.097656 27.324219 5.671875 24.539062 8.941406 24.328125 C 9.015625 24.324219 9.074219 24.257812 9.070312 24.179688 C 9.058594 23.917969 9.050781 23.65625 9.050781 23.394531 L 9.050781 22.96875 C 9.050781 14.914062 15.1875 8.4375 22.800781 8.4375 Z M 22.800781 8.4375 "/>
</g>
</svg>
